_includes/icons/ios-pencil.svg

<svg fill="#666" height="50" viewBox="0 0 50 50" width="50" xmlns="http://www.w3.org/2000/svg"><path d="m42.90625 2.90625c-1.054687 0-2.109375.390625-2.90625 1.1875l-.84375.8125c-.203125-.105469-.433594-.136719-.65625-.09375-.191406.042969-.363281.140625-.5.28125l-31.40625 31.40625c-.097656.097656-.171875.214844-.21875.34375l-3.3125 8.8125c-.132812.363281-.042969.773438.234375 1.046875.273438.277344.683594.367188 1.046875.234375l8.8125-3.3125c.128906-.046875.246094-.121094.34375-.21875l31.40625-31.40625c.335938-.347656.378906-.886719.09375-1.28125l.8125-.8125c1.59375-1.59375 1.59375-4.21875 0-5.8125-.796875-.796875-1.851562-1.1875-2.90625-1.1875zm0 2c.546875 0 1.097656.191406 1.5.59375.808594.808594.808594 2.191406 0 3l-.78125.8125-3-3 .78125-.8125c.402344-.402344.953125-.59375 1.5-.59375zm-4.21875 2.28125 4.125 4.125-2.75 2.71875-4.09375-4.09375zm-4.15625 4.15625 4.125 4.125-25.90625 25.875-.75-.78125v-1.5625c0-.550781-.449219-1-1-1h-1.5625l-.78125-.75zm-26.875 27.75.625.625c.191406.1875.453125.289063.71875.28125h1v1c-.007812.265625.09375.527344.28125.71875l.625.625-3.8125 1.4375-.875-.875z"/></svg>

<svg xmlns="http://www.w3.org/2000/svg" viewBox="0 0 50 50" width="50" height="50" fill="#666"><path d="M 42.90625 2.90625 C 41.851563 2.90625 40.796875 3.296875 40 4.09375 L 39.15625 4.90625 C 38.953125 4.800781 38.722656 4.769531 38.5 4.8125 C 38.308594 4.855469 38.136719 4.953125 38 5.09375 L 6.59375 36.5 C 6.496094 36.597656 6.421875 36.714844 6.375 36.84375 L 3.0625 45.65625 C 2.929688 46.019531 3.019531 46.429688 3.296875 46.703125 C 3.570313 46.980469 3.980469 47.070313 4.34375 46.9375 L 13.15625 43.625 C 13.285156 43.578125 13.402344 43.503906 13.5 43.40625 L 44.90625 12 C 45.242188 11.652344 45.285156 11.113281 45 10.71875 L 45.8125 9.90625 C 47.40625 8.3125 47.40625 5.6875 45.8125 4.09375 C 45.015625 3.296875 43.960938 2.90625 42.90625 2.90625 Z M 42.90625 4.90625 C 43.453125 4.90625 44.003906 5.097656 44.40625 5.5 C 45.214844 6.308594 45.214844 7.691406 44.40625 8.5 L 43.625 9.3125 L 40.625 6.3125 L 41.40625 5.5 C 41.808594 5.097656 42.359375 4.90625 42.90625 4.90625 Z M 38.6875 7.1875 L 42.8125 11.3125 L 40.0625 14.03125 L 35.96875 9.9375 Z M 34.53125 11.34375 L 38.65625 15.46875 L 12.75 41.34375 L 12 40.5625 L 12 39 C 12 38.449219 11.550781 38 11 38 L 9.4375 38 L 8.65625 37.25 Z M 7.65625 39.09375 L 8.28125 39.71875 C 8.472656 39.90625 8.734375 40.007813 9 40 L 10 40 L 10 41 C 9.992188 41.265625 10.09375 41.527344 10.28125 41.71875 L 10.90625 42.34375 L 7.09375 43.78125 L 6.21875 42.90625 Z"/></svg>
